icons/moon-clear.svg

<svg width="24" height="24" viewBox="0 0 24 24" fill="none" xmlns="http://www.w3.org/2000/svg">
<path fill-rule="evenodd" clip-rule="evenodd" d="M16 0C16.5523 0 17 0.447715 17 1V2H18C18.5523 2 19 2.44772 19 3C19 3.55228 18.5523 4 18 4H17V5C17 5.55228 16.5523 6 16 6C15.4477 6 15 5.55228 15 5V4H14C13.4477 4 13 3.55228 13 3C13 2.44772 13.4477 2 14 2H15V1C15 0.447715 15.4477 0 16 0ZM10.8839 2.40377C11.1288 2.73362 11.1471 3.17975 10.93 3.52855C10.117 4.83424 9.78338 6.38665 9.98813 7.91564C10.1929 9.44457 10.9227 10.8514 12.0489 11.8923C13.175 12.9331 14.6261 13.5423 16.1498 13.6159C17.6735 13.6894 19.1755 13.2228 20.3947 12.2956C20.716 12.0513 21.1528 12.0241 21.502 12.2267C21.8511 12.4294 22.0442 12.8221 21.9914 13.2223C21.7524 15.0348 21.0296 16.7486 19.8991 18.1809C18.7685 19.6132 17.2726 20.7103 15.5703 21.3542C13.8679 21.9982 12.0236 22.1645 10.2344 21.8353C8.44524 21.5061 6.77914 20.6938 5.41358 19.486C4.04809 18.2783 3.03439 16.7205 2.47969 14.9792C1.92501 13.238 1.84985 11.378 2.26215 9.59732C2.67444 7.81659 3.55894 6.18116 4.8222 4.86581C6.08552 3.5504 7.6803 2.60443 9.43682 2.12974C9.47811 2.11859 9.51984 2.11015 9.56176 2.10439L9.8204 2.03457C10.2171 1.92747 10.6389 2.07391 10.8839 2.40377ZM8.23673 4.74855C7.50992 5.14207 6.84405 5.64793 6.26469 6.25117C5.25209 7.30553 4.54183 8.61785 4.2106 10.0485C3.87936 11.4791 3.93979 12.9736 4.38533 14.3722C4.83087 15.7707 5.64453 17.0202 6.7386 17.9879C7.83262 18.9555 9.16603 19.6051 10.5964 19.8683C12.0267 20.1315 13.5011 19.9986 14.8627 19.4836C16.2243 18.9685 17.4226 18.0903 18.3292 16.9417C18.7777 16.3735 19.1465 15.7496 19.4279 15.0878C18.3578 15.4872 17.2107 15.6694 16.0534 15.6135C14.0585 15.5172 12.1613 14.7196 10.6915 13.3611C9.22173 12.0027 8.27211 10.1696 8.00582 8.18109C7.85095 7.02462 7.9328 5.85743 8.23673 4.74855ZM21 5C21.5523 5 22 5.44772 22 6V7H23C23.5523 7 24 7.44772 24 8C24 8.55228 23.5523 9 23 9H22V10C22 10.5523 21.5523 11 21 11C20.4477 11 20 10.5523 20 10V9H19C18.4477 9 18 8.55228 18 8C18 7.44772 18.4477 7 19 7H20V6C20 5.44772 20.4477 5 21 5Z" fill="black"/>
</svg>

<svg
  width="24"
  height="24"
  viewBox="0 0 24 24"
  xmlns="http://www.w3.org/2000/svg"
>
  <path
    fill-rule="evenodd"
    clip-rule="evenodd"
    d="M16 0a1 1 0 0 1 1 1v1h1a1 1 0 1 1 0 2h-1v1a1 1 0 1 1-2 0V4h-1a1 1 0 1 1 0-2h1V1a1 1 0 0 1 1-1zm-5.116 2.404a1 1 0 0 1 .046 1.125 6.636 6.636 0 0 0 1.119 8.363 6.494 6.494 0 0 0 8.346.403 1 1 0 0 1 1.596.927 10.144 10.144 0 0 1-2.092 4.959 10.043 10.043 0 0 1-4.329 3.173 9.976 9.976 0 0 1-5.336.481 10.011 10.011 0 0 1-4.82-2.349 10.114 10.114 0 0 1-2.934-4.507 10.174 10.174 0 0 1-.218-5.382 10.128 10.128 0 0 1 2.56-4.731A10.025 10.025 0 0 1 9.437 2.13c.041-.011.083-.02.125-.026l.258-.07a1 1 0 0 1 1.064.37zM8.237 4.749c-.727.393-1.393.899-1.972 1.502A8.128 8.128 0 0 0 4.21 10.05a8.174 8.174 0 0 0 .174 4.323 8.114 8.114 0 0 0 2.354 3.616 8.012 8.012 0 0 0 3.857 1.88c1.43.264 2.905.13 4.267-.384a8.043 8.043 0 0 0 3.466-2.542 8.12 8.12 0 0 0 1.099-1.854c-1.07.4-2.217.581-3.375.526a8.504 8.504 0 0 1-5.362-2.253 8.609 8.609 0 0 1-2.685-5.18 8.645 8.645 0 0 1 .23-3.432zM21 5a1 1 0 0 1 1 1v1h1a1 1 0 1 1 0 2h-1v1a1 1 0 1 1-2 0V9h-1a1 1 0 1 1 0-2h1V6a1 1 0 0 1 1-1z"
  />
</svg>
